X: 5
T: 5. An Wasserfl\"ussen Babylon
N: Derived from chor005.krn
C: Johann Sebastian Bach
%%abc-version 2.0
%%abcx-abcm2ps-target-version 5.9.1 (29 Sep 2008)
%%abc-creator hum2abc beta
%%abcx-conversion-date 2019/03/11 17:28:17
%%abc-edited-by Craig Stuart Sapp
%%humdrum-veritas 3690999343
%%humdrum-veritas-data 1614353593
%%
%%barnumbers 0
L: 1/4
M: C
%%staves [1 2 3 4]
V: 1 clef=treble
V: 2 clef=treble
V: 3 clef=treble-8
V: 4 clef=bass
K: G
[V:1] d [I:setbarnb 1]| 
[V:2] G | 
[V:3] B | 
[V:4] G, | 
[V:1] ed/c/ B/c/d | 
[V:2] GFGF | 
[V:3] c/B/AeA/B/ | 
[V:4] C,D,E,F,/G,/ | 
[V:1] c/B/c!fermata!BA | 
[V:2] E/G/ G/F/!fermata!GA | 
[V:3] c/e/d!fermata!dd | 
[V:4] A,D,!fermata!G,F, | 
[V:1] Bcdc/B/ | 
[V:2] GGGG | 
[V:3] dG/A/ B/G/e | 
[V:4] G,/F,/E,B,,C, | 
[V:1] A/G/A!fermata!G :|]  
[V:2] GF!fermata!D :|]  
[V:3] A/B/c!fermata!B :|]  
[V:4] D,2!fermata!G,, :|]  
[V:1] G [I:setbarnb 5]| 
[V:2] D | 
[V:3] B | 
[V:4] G, | 
[V:1] ABc/B/A | 
[V:2] D/E/FEE/D/ | 
[V:3] AdGA | 
[V:4] F,E,/D,/E,F, | 
[V:1] BA!fermata!GG/A/ | 
[V:2] DC!fermata!B,E | 
[V:3] A/G/ G/F/!fermata!GG | 
[V:4] G,D,!fermata!G,,C, | 
[V:1] Bcde | 
[V:2] DE=FE/^F/ | 
[V:3] GGGG | 
[V:4] G,/=F,/ E,/D,/ C,/B,,/ C,/D,/ | 
[V:1] B^c!fermata!dB/=c/ | 
[V:2] G/F/ G/A/!fermata!FD | 
[V:3] G/A//B//A!fermata!AG | 
[V:4] E,A,,!fermata!D,G,/A,/ | 
[V:1] ded/c/B | 
[V:2] GGAB | 
[V:3] G/d/ c/B/Ae | 
[V:4] B,CF,^G, | 
[V:1] c2!fermata!Be | 
[V:2] B/^G/A!fermata!GB | 
[V:3] e2!fermata!ee/d/ | 
[V:4] A,A,,!fermata!E,^G,, | 
[V:1] eeAd | 
[V:2] AE/C/ D/E/=F | 
[V:3] c/B/A-A/^G/ A/B/ | 
[V:4] A,,/B,,/ C,/A,,/=F,E,/D,/ | 
[V:1] cB!fermata!Ac | 
[V:2] ED!fermata!CA | 
[V:3] ^G/A^G/!fermata!AE/^F/ | 
[V:4] E,E,,!fermata!A,,A,, | 
[V:1] BAGA/G/ | 
[V:2] D/E/=FE/D/E- | 
[V:3] =Gd/c/_BA | 
[V:4] B,,/^C,/D,2C, | 
[V:1] =FE!fermata!DD | 
[V:2] E/D/ D/^C/!fermata!DD/=C/ | 
[V:3] AG!fermata!^FF | 
[V:4] D,A,,!fermata!D,B,, | 
[V:1] GAB3/c/ | 
[V:2] B,/A,/ G,/F,/G,G | 
[V:3] Gdde | 
[V:4] E,D,G,/F,/E, | 
[V:1] dc/B/AB/c/ | 
[V:2] FGGG- | 
[V:3] d2e/d/c | 
[V:4] B,,/A,,/G,,C,/B,,/A,, | 
[V:1] A2!fermata!G |]  
[V:2] GF!fermata!D |]  
[V:3] d/e/ d/c/!fermata!B |]  
[V:4] D,/C,/D,!fermata!G,, |]  



